!!!OTL: 445. Wanderspiel.
!!!ARE: Europa, Mitteleuropa, Deutschland, Dresden
!!!SCT: K2445
!!!TXL: @@DE
!!!YEM: Copyright 1995, estate of Helmut Schaffrath.
**kern	**text
*clefG2	*
*M2/4	*
*k[b-]	*
*F:	*
=1	=1
{8cc	Komm
8cc	wir
8cc	wol-
8dd	-len
=2	=2
4cc	wan-
8a}	-dern,
{8f	von
=3	=3
8cc	ei-
8cc	-ner
8cc	Stadt
8dd	ʒur
=4	=4
4cc	an-
4a}	-dern;
=5	=5
{8cc	ri-
8a	-ra-
8cc	-ri-
8a	-ra-
=6	=6
4ff^^	-rutſch!
8r}	.
{8dd	Wir
=7	=7
8cc	fah-
8a	-ren
8b-	in
8g	der
=8	=8
4f	Kutſch'.
4r}	.
==	==
!!!AGN: Kinder - Lied, Tanz -, Lauf - Spiel
!!!ONB: ESAC (Essen Associative Code) Database: KINDER
!!!AMT: simple duple
!!!AIN: vox
!!!EED: Helmut Schaffrath
!!!EEV: 1.0
!!Aus Dresden.
!!!GTL: Zweites Buch. Kinderspiel: 3. Lauf-, Sprung- und Haschenspiele.
!!@@COMMENT:"Ʒwei Kinder haben ſich an beiden Händen übers Kreuʒ angefaßt und gehen. während ſie obigen Reim ſingen. nach dem Takte nebeneinander. Bei den Silben "ri-ra-rutſch" ʒiehen ſie ſich ʒu jeder 
!!Silbe raſch hin und her und bei den letʒten Worten machen ſie mit kräftiger Drehung der Arme Kehrt und beginnen die Wanderung dann von neuen."
!!@@END:
!!!URL-scan: https://archive.org/details/DeutschesKinderliedUndKinderspiel/page/594/mode/1up
!!!ENC: Anna Maria Matuszewska
!!!EEV: 2024/05/09
*-	*-
